X:43
T:First of January. JJo.043, The
B:J.Johnson Choice Collection Vol 8 1758
Z:vmp.Simon Wilson 2013 www.village-music-project.org.uk
Z:Dance added by John Chambers 2017
M:2/4
L:1/8
%Q:1/2=60
K:G
|:\
G2cB/A/ | BGFE | DcBA | Gedc | B>G c>A | BGFE | Dd ^c/d/e/c/ | d2d2 :|
d>e (dc/d/) | ecc2 | c>d (cB/c/) | dBB2 | G>B (BG/A/) | BGFE | D>c c>B | B2A2 |
(g/f/g/a/) gd | (g/f/g/a/) gd | g/f/g/a/ gG | ((3FGA) FD | ((3GAB) ((3ABc) | ((3Bcd) ec | B2A2 | G4 |]
%%begintext align
%% Cast off and cross over :||. cast up and cross up to
%% the Top Cross over half figure. Right and Left at
%% Top foot it Corners and turn. Lead out Sides
%% and turn your Partner :||:
%%endtext
